X: 3348
T: Bellmans Polska
R: waltz
M: 3/4
K: Dmajor
|:A3/2d/d ded|Aff e/f/gf|A3/2d/d ded|Aff e/f/gf|f3/2a/a aba|
a3/2g/f gf2|e3/2f/g bag|f3/2e/d cdB|BA/G/F E/F/AA|1 A,DD4:|2 A,D2<D2E/C/||
|:D2a2a>f|g/f/g/a <ba/ gf|e3/2f/g bag|f3/2e/d cdB|BA/^G/^G AA2|
D2a2a>f|=g/f/g/a <ba/ gf|e3/2f/g bag|f3/2e/d cdB|BA/G/F E/F/AA|A,DD4:|

